X: 17947
T: How She Gets Up In The Morning
R: jig
M: 6/8
K: Cmajor
|:ed|cAG GEG|AcA GEG|~c3 dcd|edd ded|
cAG GEG|AcA GEG|~c3 dcd|1 ecc c:|2 ecc c2||
d|ecc gcc|acc gcc|ecc gcc|edd d2d|
ecc gcc|acc gcc|~d3 dcd|ecc c2d|
ecc gcc|acc gcc|ecc gcc|edd dcd|
ecc gcc|acc gec|~d3 dcd|ecc c||

